;START_OF_HEADER
;HEADER_VERSION:0.1
;FLAVOR:Griffin
;GENERATOR.NAME:Cura_SteamEngine
;GENERATOR.VERSION:5.4.0
;GENERATOR.BUILD_DATE:2023-07-04
;TARGET_MACHINE.NAME:Ultimaker S5
;EXTRUDER_TRAIN.0.INITIAL_TEMPERATURE:210
;EXTRUDER_TRAIN.0.MATERIAL.VOLUME_USED:594
;EXTRUDER_TRAIN.0.MATERIAL.GUID:3ee70a86-77d8-4b87-8005-e4a1bc57d2ce
;EXTRUDER_TRAIN.0.NOZZLE.DIAMETER:0.4
;EXTRUDER_TRAIN.0.NOZZLE.NAME:AA 0.4
;BUILD_PLATE.INITIAL_TEMPERATURE:60
;BUILD_VOLUME.TEMPERATURE:28
;PRINT.TIME:435
;PRINT.GROUPS:1
;PRINT.SIZE.MIN.X:160.205
;PRINT.SIZE.MIN.Y:115.205
;PRINT.SIZE.MIN.Z:0.2
;PRINT.SIZE.MAX.X:169.795
;PRINT.SIZE.MAX.Y:124.795
;PRINT.SIZE.MAX.Z:9.95
;SLICE_UUID:1349d0c7-6292-4e54-b10f-cff9c693b45e
;END_OF_HEADER
;Generated with Cura_SteamEngine 5.4.0
T0
M82 ;absolute extrusion mode

G92 E0
M109 S210
G280 S1
G0 Z20.001
G1 F2700 E-6.5
;LAYER_COUNT:66
;LAYER:0
M106 S255
M204 S1000
M205 X20 Y20
;MESH:Cube.STL
G0 F9000 X169.715 Y124.715 Z0.2
;TYPE:WALL-OUTER
G1 F2700 E0
G1 F3351.1 X169.715 Y115.285 E0.13008
G1 X160.285 Y115.285 E0.26016
G1 X160.285 Y124.715 E0.39024
G1 X169.715 Y124.715 E0.52033
G0 F9000 X169.715 Y124.515
G0 X169.315 Y124.315
;TYPE:WALL-INNER
G1 F3351.1 X169.315 Y115.685 E0.62314
G1 X160.685 Y115.685 E0.72595
G1 X160.685 Y124.315 E0.82876
G1 X169.315 Y124.315 E0.93157
G0 F9000 X168.995 Y123.995
;TYPE:SKIN
G1 F3351.1 X168.995 Y116.005 E1.01724
G1 X161.005 Y116.005 E1.10291
G1 X161.005 Y123.995 E1.18858
G1 X168.995 Y123.995 E1.27425
G0 F9000 X169.295 Y123.995
G0 X169.295 Y116.751
G0 X168.794 Y116.751
G1 F3351.1 X168.248 Y116.205 E1.28253
G0 F9000 X167.682 Y116.205
G1 F3351.1 X168.794 Y117.316 E1.29938
G0 F9000 X168.794 Y117.882
G1 F3351.1 X167.116 Y116.205 E1.32482
G0 F9000 X166.551 Y116.205
G1 F3351.1 X168.794 Y118.448 E1.35883
G0 F9000 X168.794 Y119.013
G1 F3351.1 X165.985 Y116.205 E1.40142
G0 F9000 X165.419 Y116.205
G1 F3351.1 X168.794 Y119.579 E1.45258
G0 F9000 X168.794 Y120.145
G1 F3351.1 X164.854 Y116.205 E1.51233
G0 F9000 X164.288 Y116.205
G1 F3351.1 X168.794 Y120.71 E1.58065
G0 F9000 X168.794 Y121.276
G1 F3351.1 X163.722 Y116.205 E1.65755
G0 F9000 X163.157 Y116.205
G1 F3351.1 X168.794 Y121.842 E1.74302
G0 F9000 X168.794 Y122.407
G1 F3351.1 X162.591 Y116.205 E1.83707
G0 F9000 X162.025 Y116.205
G1 F3351.1 X168.794 Y122.973 E1.9397
G0 F9000 X168.794 Y123.539
G1 F3351.1 X161.46 Y116.205 E2.05091
G0 F9000 X161.204 Y116.514
G1 F3351.1 X168.484 Y123.795 E2.16131
G0 F9000 X167.918 Y123.795
G1 F3351.1 X161.204 Y117.08 E2.26312
G0 F9000 X161.204 Y117.646
G1 F3351.1 X167.353 Y123.795 E2.35636
G0 F9000 X166.787 Y123.795
G1 F3351.1 X161.204 Y118.211 E2.44102
G0 F9000 X161.204 Y118.777
G1 F3351.1 X166.221 Y123.795 E2.5171
G0 F9000 X165.656 Y123.795
G1 F3351.1 X161.204 Y119.343 E2.58461
G0 F9000 X161.204 Y119.909
G1 F3351.1 X165.09 Y123.795 E2.64353
G0 F9000 X164.524 Y123.795
G1 F3351.1 X161.204 Y120.474 E2.69388
G0 F9000 X161.204 Y121.04
G1 F3351.1 X163.958 Y123.795 E2.73565
G0 F9000 X163.393 Y123.795
G1 F3351.1 X161.204 Y121.606 E2.76884
G0 F9000 X161.204 Y122.171
G1 F3351.1 X162.827 Y123.795 E2.79346
G0 F9000 X162.261 Y123.795
G1 F3351.1 X161.204 Y122.737 E2.8095
G0 F9000 X161.204 Y123.303
G1 F3351.1 X161.696 Y123.795 E2.81696
M204 S1500
;MESH:NONMESH
G0 F600 X161.696 Y123.795 Z0.35
G0 F9000 X161.696 Y124.295
G0 X169.445 Y124.445
G0 X169.795 Y124.795
;TIME_ELAPSED:9.453798
;LAYER:1
;TYPE:WALL-OUTER
;MESH:Cube.STL
G1 F2634.6 X169.795 Y115.205 E2.90715
G1 X160.205 Y115.205 E2.99735
G1 X160.205 Y124.795 E3.08755
G1 X169.795 Y124.795 E3.17774
G0 F9000 X169.795 Y124.595
G0 X169.395 Y124.395
;TYPE:WALL-INNER
G1 F2634.6 X169.395 Y115.605 E3.26041
G1 X160.605 Y115.605 E3.34309
G1 X160.605 Y124.395 E3.42576
G1 X169.395 Y124.395 E3.50843
M204 S1000
G0 F9000 X169.075 Y124.075
;TYPE:SKIN
G1 F2634.6 X169.075 Y115.925 E3.58125
G1 X160.925 Y115.925 E3.65407
G1 X160.925 Y124.075 E3.72689
G1 X169.075 Y124.075 E3.79971
G0 F9000 X168.874 Y123.585
G1 F2634.6 X168.584 Y123.875 E3.80338
G0 F9000 X168.018 Y123.875
G1 F2634.6 X168.874 Y123.019 E3.81419
G0 F9000 X168.874 Y122.453
G1 F2634.6 X167.452 Y123.875 E3.83216
G0 F9000 X166.887 Y123.875
G1 F2634.6 X168.874 Y121.888 E3.85727
G0 F9000 X168.874 Y121.322
G1 F2634.6 X166.321 Y123.875 E3.88953
G0 F9000 X165.755 Y123.875
G1 F2634.6 X168.874 Y120.756 E3.92894
G0 F9000 X168.874 Y120.191
G1 F2634.6 X165.19 Y123.875 E3.97549
G0 F9000 X164.624 Y123.875
G1 F2634.6 X168.874 Y119.625 E4.0292
G0 F9000 X168.874 Y119.059
G1 F2634.6 X164.058 Y123.875 E4.09005
G0 F9000 X163.492 Y123.875
G1 F2634.6 X168.874 Y118.494 E4.15805
G0 F9000 X168.874 Y117.928
G1 F2634.6 X162.927 Y123.875 E4.2332
G0 F9000 X162.361 Y123.875
G1 F2634.6 X168.874 Y117.362 E4.3155
G0 F9000 X168.874 Y116.797
G1 F2634.6 X161.795 Y123.875 E4.40494
G0 F9000 X161.23 Y123.875
G1 F2634.6 X168.874 Y116.231 E4.50153
G0 F9000 X168.414 Y116.125
G1 F2634.6 X161.124 Y123.415 E4.59365
G0 F9000 X161.124 Y122.849
G1 F2634.6 X167.848 Y116.125 E4.67861
G0 F9000 X167.283 Y116.125
G1 F2634.6 X161.124 Y122.284 E4.75644
G0 F9000 X161.124 Y121.718
G1 F2634.6 X166.717 Y116.125 E4.82711
G0 F9000 X166.151 Y116.125
G1 F2634.6 X161.124 Y121.152 E4.89063
G0 F9000 X161.124 Y120.587
G1 F2634.6 X165.586 Y116.125 E4.94701
G0 F9000 X165.02 Y116.125
G1 F2634.6 X161.124 Y120.021 E4.99624
G0 F9000 X161.124 Y119.455
G1 F2634.6 X164.454 Y116.125 E5.03832
G0 F9000 X163.888 Y116.125
G1 F2634.6 X161.124 Y118.89 E5.07325
G0 F9000 X161.124 Y118.324
G1 F2634.6 X163.323 Y116.125 E5.10104
G0 F9000 X162.757 Y116.125
G1 F2634.6 X161.124 Y117.758 E5.12167
G0 F9000 X161.124 Y117.193
G1 F2634.6 X162.191 Y116.125 E5.13516
G0 F9000 X161.626 Y116.125
G1 F2634.6 X161.124 Y116.627 E5.14151
M204 S1500
G0 F9000 X161.205 Y116.627
;MESH:NONMESH
G0 F600 X161.205 Y116.627 Z0.5
G0 F9000 X169.525 Y124.525
G0 X169.795 Y124.795
;TIME_ELAPSED:17.198211
;LAYER:2
;TYPE:WALL-OUTER
;MESH:Cube.STL
G1 F2668.6 X169.795 Y115.205 E5.2317
G1 X160.205 Y115.205 E5.3219
G1 X160.205 Y124.795 E5.4121
G1 X169.795 Y124.795 E5.50229
G0 F9000 X169.795 Y124.595
G0 X169.395 Y124.395
;TYPE:WALL-INNER
G1 F2668.6 X169.395 Y115.605 E5.58497
G1 X160.605 Y115.605 E5.66764
G1 X160.605 Y124.395 E5.75031
G1 X169.395 Y124.395 E5.83298
M204 S1000
G0 F9000 X169.075 Y124.075
;TYPE:SKIN
G1 F2668.6 X169.075 Y115.925 E5.9058
G1 X160.925 Y115.925 E5.97862
G1 X160.925 Y124.075 E6.05144
G1 X169.075 Y124.075 E6.12426
G0 F9000 X168.874 Y116.265
G1 F2668.6 X168.734 Y116.125 E6.12603
G0 F9000 X168.168 Y116.125
G1 F2668.6 X168.874 Y116.831 E6.13495
G0 F9000 X168.874 Y117.396
G1 F2668.6 X167.602 Y116.125 E6.15102
G0 F9000 X167.037 Y116.125
G1 F2668.6 X168.874 Y117.962 E6.17423
G0 F9000 X168.874 Y118.528
G1 F2668.6 X166.471 Y116.125 E6.2046
G0 F9000 X165.905 Y116.125
G1 F2668.6 X168.874 Y119.093 E6.24211
G0 F9000 X168.874 Y119.659
G1 F2668.6 X165.339 Y116.125 E6.28677
G0 F9000 X164.774 Y116.125
G1 F2668.6 X168.874 Y120.225 E6.33858
G0 F9000 X168.874 Y120.79
G1 F2668.6 X164.208 Y116.125 E6.39753
G0 F9000 X163.642 Y116.125
G1 F2668.6 X168.874 Y121.356 E6.46364
G0 F9000 X168.874 Y121.922
G1 F2668.6 X163.077 Y116.125 E6.53689
G0 F9000 X162.511 Y116.125
G1 F2668.6 X168.874 Y122.487 E6.61728
G0 F9000 X168.874 Y123.053
G1 F2668.6 X161.945 Y116.125 E6.70483
G0 F9000 X161.38 Y116.125
G1 F2668.6 X168.874 Y123.619 E6.79953
G0 F9000 X168.564 Y123.875
G1 F2668.6 X161.124 Y116.435 E6.89354
G0 F9000 X161.124 Y117
G1 F2668.6 X167.998 Y123.875 E6.98041
G0 F9000 X167.432 Y123.875
G1 F2668.6 X161.124 Y117.566 E7.06012
G0 F9000 X161.124 Y118.132
G1 F2668.6 X166.867 Y123.875 E7.13269
G0 F9000 X166.301 Y123.875
G1 F2668.6 X161.124 Y118.697 E7.19811
G0 F9000 X161.124 Y119.263
G1 F2668.6 X165.735 Y123.875 E7.25638
G0 F9000 X165.17 Y123.875
G1 F2668.6 X161.124 Y119.829 E7.30751
G0 F9000 X161.124 Y120.394
G1 F2668.6 X164.604 Y123.875 E7.35149
G0 F9000 X164.038 Y123.875
G1 F2668.6 X161.124 Y120.96 E7.38831
G0 F9000 X161.124 Y121.526
G1 F2668.6 X163.473 Y123.875 E7.418
G0 F9000 X162.907 Y123.875
G1 F2668.6 X161.124 Y122.091 E7.44053
G0 F9000 X161.124 Y122.657
G1 F2668.6 X162.341 Y123.875 E7.45592
G0 F9000 X161.776 Y123.875
G1 F2668.6 X161.124 Y123.223 E7.46416
G0 F9000 X161.124 Y123.788
G1 F2668.6 X161.21 Y123.875 E7.46525
M204 S1500
G0 F9000 X161.21 Y123.795
;MESH:NONMESH
G0 F600 X161.21 Y123.795 Z0.65
G0 F9000 X169.525 Y124.525
G0 X169.795 Y124.795
;TIME_ELAPSED:25.009686
;LAYER:3
;TYPE:WALL-OUTER
;MESH:Cube.STL
G1 F2636.1 X169.795 Y115.205 E7.55545
G1 X160.205 Y115.205 E7.64564
G1 X160.205 Y124.795 E7.73584
G1 X169.795 Y124.795 E7.82604
G0 F9000 X169.795 Y124.595
G0 X169.395 Y124.395
;TYPE:WALL-INNER
G1 F2636.1 X169.395 Y115.605 E7.90871
G1 X160.605 Y115.605 E7.99138
G1 X160.605 Y124.395 E8.07405
G1 X169.395 Y124.395 E8.15673
M204 S1000
G0 F9000 X169.075 Y124.075
;TYPE:SKIN
G1 F2636.1 X169.075 Y115.925 E8.22955
G1 X160.925 Y115.925 E8.30237
G1 X160.925 Y124.075 E8.37519
G1 X169.075 Y124.075 E8.44801
G0 F9000 X168.874 Y123.585
G1 F2636.1 X168.584 Y123.875 E8.45167
G0 F9000 X168.018 Y123.875
G1 F2636.1 X168.874 Y123.019 E8.46249
G0 F9000 X168.874 Y122.453
G1 F2636.1 X167.452 Y123.875 E8.48046
G0 F9000 X166.887 Y123.875
G1 F2636.1 X168.874 Y121.888 E8.50556
G0 F9000 X168.874 Y121.322
G1 F2636.1 X166.321 Y123.875 E8.53782
G0 F9000 X165.755 Y123.875
G1 F2636.1 X168.874 Y120.756 E8.57724
G0 F9000 X168.874 Y120.191
G1 F2636.1 X165.19 Y123.875 E8.62379
G0 F9000 X164.624 Y123.875
G1 F2636.1 X168.874 Y119.625 E8.67749
G0 F9000 X168.874 Y119.059
G1 F2636.1 X164.058 Y123.875 E8.73834
G0 F9000 X163.492 Y123.875
G1 F2636.1 X168.874 Y118.494 E8.80635
G0 F9000 X168.874 Y117.928
G1 F2636.1 X162.927 Y123.875 E8.88149
G0 F9000 X162.361 Y123.875
G1 F2636.1 X168.874 Y117.362 E8.96379
G0 F9000 X168.874 Y116.797
G1 F2636.1 X161.795 Y123.875 E9.05323
G0 F9000 X161.23 Y123.875
G1 F2636.1 X168.874 Y116.231 E9.14982
G0 F9000 X168.414 Y116.125
G1 F2636.1 X161.124 Y123.415 E9.24194
G0 F9000 X161.124 Y122.849
G1 F2636.1 X167.848 Y116.125 E9.32691
G0 F9000 X167.283 Y116.125
G1 F2636.1 X161.124 Y122.284 E9.40473
G0 F9000 X161.124 Y121.718
G1 F2636.1 X166.717 Y116.125 E9.4754
G0 F9000 X166.151 Y116.125
G1 F2636.1 X161.124 Y121.152 E9.53892
G0 F9000 X161.124 Y120.587
G1 F2636.1 X165.586 Y116.125 E9.59531
G0 F9000 X165.02 Y116.125
G1 F2636.1 X161.124 Y120.021 E9.64454
G0 F9000 X161.124 Y119.455
G1 F2636.1 X164.454 Y116.125 E9.68661
G0 F9000 X163.888 Y116.125
G1 F2636.1 X161.124 Y118.89 E9.72155
G0 F9000 X161.124 Y118.324
G1 F2636.1 X163.323 Y116.125 E9.74933
G0 F9000 X162.757 Y116.125
G1 F2636.1 X161.124 Y117.758 E9.76997
G0 F9000 X161.124 Y117.193
G1 F2636.1 X162.191 Y116.125 E9.78346
G0 F9000 X161.626 Y116.125
G1 F2636.1 X161.124 Y116.627 E9.7898
M204 S1500
G0 F9000 X161.205 Y116.627
;MESH:NONMESH
G0 F600 X161.205 Y116.627 Z0.8
G0 F9000 X169.525 Y124.525
G0 X169.795 Y124.795
;TIME_ELAPSED:32.751474
;LAYER:4
;TYPE:WALL-OUTER
;MESH:Cube.STL
G1 F2668.6 X169.795 Y115.205 E9.88
G1 X160.205 Y115.205 E9.97019
G1 X160.205 Y124.795 E10.06039
G1 X169.795 Y124.795 E10.15059
G0 F9000 X169.795 Y124.595
G0 X169.395 Y124.395
;TYPE:WALL-INNER
G1 F2668.6 X169.395 Y115.605 E10.23326
G1 X160.605 Y115.605 E10.31593
G1 X160.605 Y124.395 E10.3986
G1 X169.395 Y124.395 E10.48128
M204 S1000
G0 F9000 X169.075 Y124.075
;TYPE:SKIN
G1 F2668.6 X169.075 Y115.925 E10.5541
G1 X160.925 Y115.925 E10.62692
G1 X160.925 Y124.075 E10.69974
G1 X169.075 Y124.075 E10.77256
G0 F9000 X168.874 Y116.265
G1 F2668.6 X168.734 Y116.125 E10.77433
G0 F9000 X168.168 Y116.125
G1 F2668.6 X168.874 Y116.831 E10.78325
G0 F9000 X168.874 Y117.396
G1 F2668.6 X167.602 Y116.125 E10.79931
G0 F9000 X167.037 Y116.125
G1 F2668.6 X168.874 Y117.962 E10.82253
G0 F9000 X168.874 Y118.528
G1 F2668.6 X166.471 Y116.125 E10.85289
G0 F9000 X165.905 Y116.125
G1 F2668.6 X168.874 Y119.093 E10.8904
G0 F9000 X168.874 Y119.659
G1 F2668.6 X165.339 Y116.125 E10.93506
G0 F9000 X164.774 Y116.125
G1 F2668.6 X168.874 Y120.225 E10.98687
G0 F9000 X168.874 Y120.79
G1 F2668.6 X164.208 Y116.125 E11.04582
G0 F9000 X163.642 Y116.125
G1 F2668.6 X168.874 Y121.356 E11.11193
G0 F9000 X168.874 Y121.922
G1 F2668.6 X163.077 Y116.125 E11.18518
G0 F9000 X162.511 Y116.125
G1 F2668.6 X168.874 Y122.487 E11.26558
G0 F9000 X168.874 Y123.053
G1 F2668.6 X161.945 Y116.125 E11.35313
G0 F9000 X161.38 Y116.125
G1 F2668.6 X168.874 Y123.619 E11.44782
G0 F9000 X168.564 Y123.875
G1 F2668.6 X161.124 Y116.435 E11.54183
G0 F9000 X161.124 Y117
G1 F2668.6 X167.998 Y123.875 E11.6287
G0 F9000 X167.432 Y123.875
G1 F2668.6 X161.124 Y117.566 E11.70841
G0 F9000 X161.124 Y118.132
G1 F2668.6 X166.867 Y123.875 E11.78098
G0 F9000 X166.301 Y123.875
G1 F2668.6 X161.124 Y118.697 E11.8464
G0 F9000 X161.124 Y119.263
G1 F2668.6 X165.735 Y123.875 E11.90468
G0 F9000 X165.17 Y123.875
G1 F2668.6 X161.124 Y119.829 E11.9558
G0 F9000 X161.124 Y120.394
G1 F2668.6 X164.604 Y123.875 E11.99978
G0 F9000 X164.038 Y123.875
G1 F2668.6 X161.124 Y120.96 E12.03661
G0 F9000 X161.124 Y121.526
G1 F2668.6 X163.473 Y123.875 E12.06629
G0 F9000 X162.907 Y123.875
G1 F2668.6 X161.124 Y122.091 E12.08883
G0 F9000 X161.124 Y122.657
G1 F2668.6 X162.341 Y123.875 E12.10421
G0 F9000 X161.776 Y123.875
G1 F2668.6 X161.124 Y123.223 E12.11245
G0 F9000 X161.124 Y123.788
G1 F2668.6 X161.21 Y123.875 E12.11354
M204 S1500
G0 F9000 X161.21 Y123.795
;MESH:NONMESH
G0 F600 X161.21 Y123.795 Z0.95
G0 F9000 X169.525 Y124.525
G0 X169.795 Y124.795
;TIME_ELAPSED:40.562949
;LAYER:5
;TYPE:WALL-OUTER
;MESH:Cube.STL
G1 F2636.1 X169.795 Y115.205 E12.20374
G1 X160.205 Y115.205 E12.29394
G1 X160.205 Y124.795 E12.38413
G1 X169.795 Y124.795 E12.47433
G0 F9000 X169.795 Y124.595
G0 X169.395 Y124.395
;TYPE:WALL-INNER
G1 F2636.1 X169.395 Y115.605 E12.557
G1 X160.605 Y115.605 E12.63967
G1 X160.605 Y124.395 E12.72235
G1 X169.395 Y124.395 E12.80502
M204 S1000
G0 F9000 X169.075 Y124.075
;TYPE:SKIN
G1 F2636.1 X169.075 Y115.925 E12.87784
G1 X160.925 Y115.925 E12.95066
G1 X160.925 Y124.075 E13.02348
G1 X169.075 Y124.075 E13.0963
G0 F9000 X168.874 Y123.585
G1 F2636.1 X168.584 Y123.875 E13.09996
G0 F9000 X168.018 Y123.875
G1 F2636.1 X168.874 Y123.019 E13.11078
G0 F9000 X168.874 Y122.453
G1 F2636.1 X167.452 Y123.875 E13.12875
G0 F9000 X166.887 Y123.875
G1 F2636.1 X168.874 Y121.888 E13.15386
G0 F9000 X168.874 Y121.322
G1 F2636.1 X166.321 Y123.875 E13.18612
G0 F9000 X165.755 Y123.875
G1 F2636.1 X168.874 Y120.756 E13.22553
G0 F9000 X168.874 Y120.191
G1 F2636.1 X165.19 Y123.875 E13.27208
G0 F9000 X164.624 Y123.875
G1 F2636.1 X168.874 Y119.625 E13.32578
G0 F9000 X168.874 Y119.059
G1 F2636.1 X164.058 Y123.875 E13.38664
G0 F9000 X163.492 Y123.875
G1 F2636.1 X168.874 Y118.494 E13.45464
G0 F9000 X168.874 Y117.928
G1 F2636.1 X162.927 Y123.875 E13.52979
G0 F9000 X162.361 Y123.875
G1 F2636.1 X168.874 Y117.362 E13.61208
G0 F9000 X168.874 Y116.797
G1 F2636.1 X161.795 Y123.875 E13.70153
G0 F9000 X161.23 Y123.875
G1 F2636.1 X168.874 Y116.231 E13.79812
G0 F9000 X168.414 Y116.125
G1 F2636.1 X161.124 Y123.415 E13.89023
G0 F9000 X161.124 Y122.849
G1 F2636.1 X167.848 Y116.125 E13.9752
G0 F9000 X167.283 Y116.125
G1 F2636.1 X161.124 Y122.284 E14.05302
G0 F9000 X161.124 Y121.718
G1 F2636.1 X166.717 Y116.125 E14.1237
G0 F9000 X166.151 Y116.125
G1 F2636.1 X161.124 Y121.152 E14.18722
G0 F9000 X161.124 Y120.587
G1 F2636.1 X165.586 Y116.125 E14.2436
G0 F9000 X165.02 Y116.125
G1 F2636.1 X161.124 Y120.021 E14.29283
G0 F9000 X161.124 Y119.455
G1 F2636.1 X164.454 Y116.125 E14.33491
G0 F9000 X163.888 Y116.125
G1 F2636.1 X161.124 Y118.89 E14.36984
G0 F9000 X161.124 Y118.324
G1 F2636.1 X163.323 Y116.125 E14.39763
G0 F9000 X162.757 Y116.125
G1 F2636.1 X161.124 Y117.758 E14.41826
G0 F9000 X161.124 Y117.193
G1 F2636.1 X162.191 Y116.125 E14.43175
G0 F9000 X161.626 Y116.125
G1 F2636.1 X161.124 Y116.627 E14.43809
M204 S1500
G0 F9000 X161.205 Y116.627
;MESH:NONMESH
G0 F600 X161.205 Y116.627 Z1.1
G0 F9000 X169.525 Y124.525
G0 X169.795 Y124.795
;TIME_ELAPSED:48.304738
;LAYER:6
;TYPE:WALL-OUTER
;MESH:Cube.STL
G1 F2668.6 X169.795 Y115.205 E14.52829
G1 X160.205 Y115.205 E14.61849
G1 X160.205 Y124.795 E14.70868
G1 X169.795 Y124.795 E14.79888
G0 F9000 X169.795 Y124.595
G0 X169.395 Y124.395
;TYPE:WALL-INNER
