;START_OF_HEADER
;HEADER_VERSION:0.1
;FLAVOR:Griffin
;GENERATOR.NAME:Cura_SteamEngine
;GENERATOR.VERSION:5.4.0
;GENERATOR.BUILD_DATE:2023-07-04
;TARGET_MACHINE.NAME:Ultimaker S5
;EXTRUDER_TRAIN.0.INITIAL_TEMPERATURE:210
;EXTRUDER_TRAIN.0.MATERIAL.VOLUME_USED:2903
;EXTRUDER_TRAIN.0.MATERIAL.GUID:3ee70a86-77d8-4b87-8005-e4a1bc57d2ce
;EXTRUDER_TRAIN.0.NOZZLE.DIAMETER:0.4
;EXTRUDER_TRAIN.0.NOZZLE.NAME:AA 0.4
;BUILD_PLATE.INITIAL_TEMPERATURE:60
;BUILD_VOLUME.TEMPERATURE:28
;PRINT.TIME:1661
;PRINT.GROUPS:1
;PRINT.SIZE.MIN.X:131.628
;PRINT.SIZE.MIN.Y:98.592
;PRINT.SIZE.MIN.Z:0.2
;PRINT.SIZE.MAX.X:195.749
;PRINT.SIZE.MAX.Y:141.4
;PRINT.SIZE.MAX.Z:20
;SLICE_UUID:5b8db4e3-11ad-49d8-9603-2bf327409e0f
;END_OF_HEADER
;Generated with Cura_SteamEngine 5.4.0
T0
M82 ;absolute extrusion mode

G92 E0
M109 S100 ; Wait for extruder temperature
G280 S1
G0 Z20.001
G1 F2700 E-4.5
;LAYER_COUNT:133
;LAYER:0
M106 S255
M204 S1000
M205 X20 Y20
G0 F9000 X191.524 Y132.192 Z0.2
;TYPE:SKIRT
G1 F2700 E0
G1 F3600 X191.091 Y132.668 E0.00807
G1 X189.832 Y134.113 E0.0321
G1 X188.943 Y134.949 E0.04741
G1 X188.495 Y135.4 E0.05538
G1 X187.297 Y136.366 E0.07468
G1 X186.86 Y136.641 E0.08115
G1 X185.069 Y137.845 E0.10822
G1 X184.036 Y138.405 E0.12295
G1 X183.674 Y138.622 E0.12824
G1 X182.256 Y139.284 E0.14787
G1 X181.797 Y139.44 E0.15395
G1 X179.814 Y140.182 E0.1805
G1 X178.681 Y140.492 E0.19523
G1 X178.06 Y140.687 E0.20339
G1 X176.525 Y141.001 E0.22304
G1 X174.597 Y141.246 E0.24741
G1 X172.554 Y141.4 E0.27311
G1 X170.842 Y141.375 E0.29458
G1 X170.588 Y141.346 E0.29778
G1 X169.276 Y141.274 E0.31426
G1 X167.02 Y140.975 E0.3428
G1 X165.303 Y140.585 E0.36488
G1 X164.958 Y140.471 E0.36944
G1 X162.946 Y139.87 E0.39577
G1 X161.831 Y139.425 E0.41082
G1 X161.212 Y139.195 E0.4191
G1 X160.012 Y138.618 E0.4358
G1 X159.594 Y138.367 E0.44192
G1 X158.047 Y137.488 E0.46423
G1 X157.668 Y137.874 E0.47101
G1 X155.87 Y139.05 E0.49796
G1 X153.739 Y139.465 E0.52518
G1 X151.067 Y139.317 E0.55874
G1 X149.382 Y138.71 E0.5812
G1 X147.449 Y136.92 E0.61424
G1 X142.042 Y128.703 E0.73759
G1 X136.808 Y127.953 E0.8039
G1 X134.996 Y127.177 E0.82862
G1 X134.142 Y126.569 E0.84176
G1 X132.197 Y124.16 E0.88059
G1 X131.631 Y121.745 E0.91169
G1 X131.628 Y117.983 E0.95887
G1 X132.185 Y115.913 E0.98575
G1 X132.635 Y115.121 E0.99718
G1 X134.718 Y112.875 E1.03559
G1 X137.037 Y111.962 E1.06684
G1 X142.041 Y111.245 E1.13024
G1 X147.628 Y102.749 E1.25775
G1 X149.481 Y101.207 E1.28798
G1 X152.296 Y100.4 E1.32471
G1 X155.487 Y100.728 E1.36493
G1 X157.731 Y102.144 E1.39821
G1 X158.088 Y102.503 E1.40456
G1 X158.6 Y102.16 E1.41229
G1 X159.632 Y101.601 E1.427
G1 X160.28 Y101.224 E1.43641
G1 X161.444 Y100.703 E1.4524
G1 X161.931 Y100.542 E1.45883
G1 X163.92 Y99.801 E1.48545
G1 X165.015 Y99.5 E1.49969
G1 X165.439 Y99.364 E1.50527
G1 X167.174 Y98.993 E1.52752
G1 X169.04 Y98.755 E1.55111
G1 X170.768 Y98.608 E1.57286
G1 X172.345 Y98.592 E1.59264
G1 X172.84 Y98.63 E1.59886
G1 X173.807 Y98.673 E1.611
G1 X176.852 Y99.055 E1.64949
G1 X178.351 Y99.405 E1.66879
G1 X178.67 Y99.508 E1.67299
G1 X180.436 Y100.021 E1.69606
G1 X181.762 Y100.539 E1.71391
G1 X182.147 Y100.67 E1.71901
G1 X183.802 Y101.443 E1.74191
G1 X186.09 Y102.802 E1.77529
G1 X186.921 Y103.395 E1.78809
G1 X187.536 Y103.815 E1.79743
G1 X188.474 Y104.595 E1.81273
G1 X190.329 Y106.406 E1.84524
G1 X191.129 Y107.363 E1.86088
G1 X191.548 Y107.833 E1.86877
G1 X192.563 Y109.303 E1.89118
G1 X192.755 Y109.669 E1.89636
G1 X193.6 Y111.152 E1.91776
G1 X194.609 Y113.385 E1.94849
G1 X195.015 Y114.705 E1.96581
G1 X195.117 Y115.239 E1.97263
G1 X195.506 Y117.099 E1.99646
G1 X195.749 Y119.539 E2.02721
G1 X195.716 Y120.999 E2.04552
G1 X195.657 Y121.462 E2.05138
G1 X195.486 Y123.028 E2.07113
G1 X194.944 Y125.564 E2.10365
G1 X194.547 Y126.756 E2.11941
G1 X193.453 Y129.143 E2.15233
G1 X192.334 Y131.088 E2.18047
G1 X191.524 Y132.192 E2.19765
G0 F9000 X191.201 Y131.955
G1 F3600 X190.789 Y132.405 E2.2053
G1 X189.53 Y133.85 E2.22933
G1 X188.669 Y134.657 E2.24413
G1 X188.211 Y135.118 E2.25228
G1 X187.084 Y136.027 E2.27044
G1 X186.647 Y136.302 E2.27691
G1 X184.878 Y137.493 E2.30365
G1 X183.845 Y138.053 E2.31839
G1 X183.468 Y138.279 E2.3239
G1 X182.127 Y138.905 E2.34246
G1 X181.656 Y139.065 E2.3487
G1 X179.708 Y139.796 E2.37479
G1 X178.565 Y140.109 E2.38965
G1 X177.94 Y140.305 E2.39786
G1 X176.474 Y140.604 E2.41663
G1 X174.567 Y140.847 E2.44074
G1 X172.56 Y141 E2.46598
G1 X170.848 Y140.975 E2.48745
G1 X170.629 Y140.948 E2.49022
G1 X169.329 Y140.877 E2.50654
G1 X167.073 Y140.578 E2.53508
G1 X165.428 Y140.205 E2.55623
G1 X165.083 Y140.091 E2.56079
G1 X163.094 Y139.499 E2.58681
G1 X161.97 Y139.05 E2.60199
G1 X161.385 Y138.834 E2.60981
G1 X160.218 Y138.275 E2.62604
G1 X159.792 Y138.019 E2.63227
G1 X157.972 Y136.985 E2.65852
G1 X157.449 Y137.539 E2.66808
G1 X155.717 Y138.672 E2.69403
G1 X153.709 Y139.063 E2.71968
G1 X151.148 Y138.921 E2.75185
G1 X149.594 Y138.361 E2.77256
G1 X147.757 Y136.66 E2.80396
G1 X142.277 Y128.332 E2.92898
G1 X136.919 Y127.565 E2.99685
G1 X135.192 Y126.825 E3.02042
G1 X134.417 Y126.274 E3.03234
G1 X132.565 Y123.98 E3.06931
G1 X132.031 Y121.701 E3.09867
G1 X132.028 Y118.035 E3.14464
G1 X132.558 Y116.067 E3.1702
G1 X132.96 Y115.358 E3.18042
G1 X134.949 Y113.214 E3.21709
G1 X137.14 Y112.351 E3.24662
G1 X142.276 Y111.616 E3.31169
G1 X147.93 Y103.018 E3.44073
G1 X149.671 Y101.569 E3.46914
G1 X152.333 Y100.806 E3.50387
G1 X155.353 Y101.116 E3.54194
G1 X157.517 Y102.482 E3.57403
G1 X158.031 Y103.024 E3.5834
G1 X158.791 Y102.512 E3.59489
G1 X159.823 Y101.953 E3.60961
G1 X160.481 Y101.57 E3.61915
G1 X161.57 Y101.083 E3.63411
G1 X162.062 Y100.92 E3.64061
G1 X164.026 Y100.187 E3.6669
G1 X165.121 Y99.886 E3.68114
G1 X165.561 Y99.745 E3.68694
G1 X167.225 Y99.39 E3.70827
G1 X169.074 Y99.154 E3.73165
G1 X170.802 Y99.007 E3.7534
G1 X172.349 Y98.992 E3.7728
G1 X172.818 Y99.03 E3.7787
G1 X173.789 Y99.073 E3.79089
G1 X176.761 Y99.445 E3.82845
G1 X178.26 Y99.795 E3.84775
G1 X178.559 Y99.892 E3.85169
G1 X180.291 Y100.394 E3.87431
G1 X181.628 Y100.916 E3.89231
G1 X182.018 Y101.049 E3.89747
G1 X183.598 Y101.787 E3.91934
G1 X185.858 Y103.128 E3.9523
G1 X186.689 Y103.72 E3.96509
G1 X187.28 Y104.123 E3.97406
G1 X188.218 Y104.903 E3.98936
G1 X190.022 Y106.663 E4.02097
G1 X190.83 Y107.629 E4.03676
G1 X191.249 Y108.099 E4.04466
G1 X192.209 Y109.489 E4.06584
G1 X192.401 Y109.855 E4.07102
G1 X193.235 Y111.317 E4.09213
G1 X194.244 Y113.55 E4.12286
G1 X194.622 Y114.78 E4.139
G1 X194.725 Y115.321 E4.1459
G1 X195.114 Y117.181 E4.16973
G1 X195.349 Y119.531 E4.19935
G1 X195.319 Y120.948 E4.21712
G1 X195.26 Y121.411 E4.22298
G1 X195.088 Y122.985 E4.24283
G1 X194.564 Y125.438 E4.27429
G1 X194.183 Y126.59 E4.2895
G1 X193.106 Y128.944 E4.32197
G1 X192.011 Y130.851 E4.34954
G1 X191.201 Y131.955 E4.36671
G0 F9000 X190.878 Y131.718
G1 F3600 X190.487 Y132.142 E4.37395
G1 X189.228 Y133.587 E4.39798
G1 X188.385 Y134.375 E4.41245
G1 X187.927 Y134.836 E4.4206
G1 X186.871 Y135.688 E4.43762
G1 X186.423 Y135.97 E4.44425
G1 X184.687 Y137.141 E4.47051
G1 X183.654 Y137.701 E4.48525
G1 X183.262 Y137.936 E4.49098
G1 X181.998 Y138.526 E4.50847
G1 X181.515 Y138.69 E4.51487
G1 X179.567 Y139.421 E4.54096
G1 X178.445 Y139.727 E4.55555
G1 X177.82 Y139.923 E4.56376
G1 X176.423 Y140.207 E4.58164
G1 X174.536 Y140.448 E4.60549
G1 X172.565 Y140.6 E4.63028
G1 X170.897 Y140.578 E4.6512
G1 X170.67 Y140.55 E4.65407
G1 X169.382 Y140.48 E4.67025
G1 X167.126 Y140.181 E4.69879
G1 X165.553 Y139.825 E4.71901
G1 X165.208 Y139.711 E4.72357
G1 X163.242 Y139.127 E4.74929
G1 X162.118 Y138.679 E4.76446
G1 X161.558 Y138.473 E4.77194
G1 X160.391 Y137.914 E4.78817
G1 X159.99 Y137.671 E4.79405
G1 X158.336 Y136.731 E4.81791
G1 X157.927 Y136.443 E4.82418
G1 X157.23 Y137.204 E4.83712
G1 X155.564 Y138.294 E4.86209
G1 X153.679 Y138.661 E4.88617
G1 X151.229 Y138.525 E4.91694
G1 X149.808 Y138.013 E4.93588
G1 X148.063 Y136.398 E4.9657
G1 X142.512 Y127.962 E5.09234
G1 X137.028 Y127.176 E5.16181
G1 X135.389 Y126.474 E5.18417
G1 X134.692 Y125.979 E5.19489
G1 X132.933 Y123.8 E5.23001
G1 X132.431 Y121.657 E5.25761
G1 X132.428 Y118.087 E5.30238
G1 X132.931 Y116.218 E5.32665
G1 X133.253 Y115.63 E5.33506
G1 X135.18 Y113.552 E5.3706
G1 X137.241 Y112.741 E5.39837
G1 X142.511 Y111.986 E5.46514
G1 X148.232 Y103.287 E5.5957
G1 X149.861 Y101.931 E5.62228
G1 X152.37 Y101.212 E5.65501
G1 X155.219 Y101.504 E5.69093
G1 X157.303 Y102.82 E5.72184
G1 X157.969 Y103.549 E5.73422
G1 X158.982 Y102.864 E5.74955
G1 X160.014 Y102.305 E5.76427
G1 X160.645 Y101.935 E5.77345
G1 X161.696 Y101.463 E5.78789
G1 X162.191 Y101.299 E5.79443
G1 X164.132 Y100.573 E5.82042
G1 X165.227 Y100.272 E5.83466
G1 X165.683 Y100.126 E5.84067
G1 X167.276 Y99.787 E5.86109
G1 X169.108 Y99.553 E5.88425
G1 X170.836 Y99.406 E5.906
G1 X172.317 Y99.391 E5.92457
G1 X172.796 Y99.43 E5.9306
G1 X173.771 Y99.473 E5.94284
G1 X176.67 Y99.835 E5.97947
G1 X178.169 Y100.185 E5.99878
G1 X178.441 Y100.274 E6.00237
G1 X180.146 Y100.767 E6.02462
G1 X181.494 Y101.293 E6.04277
G1 X181.889 Y101.428 E6.048
G1 X183.394 Y102.131 E6.06884
G1 X185.626 Y103.454 E6.10137
G1 X186.464 Y104.051 E6.11428
G1 X187.024 Y104.431 E6.12276
G1 X187.962 Y105.211 E6.13806
G1 X188.269 Y105.52 E6.14352
G1 X189.715 Y106.92 E6.16876
G1 X190.531 Y107.895 E6.18471
G1 X190.95 Y108.365 E6.1926
G1 X191.855 Y109.676 E6.21258
G1 X192.048 Y110.042 E6.21777
G1 X192.87 Y111.482 E6.23856
G1 X193.879 Y113.715 E6.26929
G1 X194.229 Y114.855 E6.28425
G1 X194.333 Y115.403 E6.29124
G1 X194.722 Y117.263 E6.31507
G1 X194.949 Y119.523 E6.34355
G1 X194.922 Y120.897 E6.36079
G1 X194.863 Y121.36 E6.36664
G1 X194.69 Y122.941 E6.38659
G1 X194.184 Y125.313 E6.417
G1 X193.819 Y126.424 E6.43167
G1 X192.759 Y128.745 E6.46366
G1 X191.688 Y130.614 E6.49068
G1 X190.878 Y131.718 E6.50785
G0 F9000 X190.555 Y131.481
G1 F3600 X190.194 Y131.87 E6.5145
G1 X188.955 Y133.295 E6.53818
G1 X188.101 Y134.093 E6.55284
G1 X187.643 Y134.554 E6.56099
G1 X186.658 Y135.349 E6.57686
G1 X186.21 Y135.631 E6.5835
G1 X184.496 Y136.789 E6.60944
G1 X183.463 Y137.349 E6.62418
G1 X183.056 Y137.593 E6.63013
G1 X181.869 Y138.147 E6.64656
G1 X181.386 Y138.311 E6.65295
G1 X179.461 Y139.035 E6.67874
G1 X178.339 Y139.342 E6.69333
G1 X177.74 Y139.531 E6.70121
G1 X176.372 Y139.81 E6.71872
G1 X174.505 Y140.049 E6.74232
G1 X172.57 Y140.2 E6.76666
G1 X170.946 Y140.181 E6.78703
G1 X170.711 Y140.152 E6.79
G1 X169.435 Y140.083 E6.80602
G1 X167.179 Y139.784 E6.83456
G1 X165.642 Y139.435 E6.85432
G1 X165.336 Y139.332 E6.85837
G1 X163.39 Y138.755 E6.88383
G1 X162.266 Y138.307 E6.899
G1 X161.731 Y138.112 E6.90614
G1 X160.564 Y137.553 E6.92237
G1 X160.188 Y137.323 E6.9279
G1 X158.534 Y136.383 E6.95175
G1 X157.87 Y135.913 E6.96195
G1 X156.97 Y136.896 E6.97867
G1 X155.411 Y137.916 E7.00203
G1 X153.649 Y138.259 E7.02454
G1 X151.309 Y138.129 E7.05393
G1 X150.022 Y137.666 E7.07108
G1 X148.369 Y136.136 E7.09933
G1 X142.747 Y127.591 E7.2276
G1 X137.139 Y126.788 E7.29864
G1 X135.547 Y126.106 E7.32036
G1 X134.968 Y125.684 E7.32935
G1 X133.301 Y123.62 E7.36262
G1 X132.831 Y121.613 E7.38847
G1 X132.828 Y118.139 E7.43203
G1 X133.306 Y116.364 E7.45509
G1 X133.546 Y115.902 E7.46161
G1 X135.411 Y113.891 E7.49601
G1 X137.344 Y113.13 E7.52206
G1 X142.746 Y112.356 E7.59049
G1 X148.534 Y103.556 E7.72258
G1 X150.051 Y102.293 E7.74733
G1 X152.407 Y101.618 E7.77807
G1 X155.086 Y101.893 E7.81184
G1 X157.043 Y103.128 E7.84086
G1 X157.907 Y104.074 E7.85693
G1 X159.173 Y103.216 E7.87611
G1 X160.205 Y102.657 E7.89082
G1 X160.809 Y102.3 E7.89962
G1 X161.822 Y101.843 E7.91356
G1 X162.323 Y101.677 E7.92018
G1 X164.238 Y100.959 E7.94582
G1 X165.333 Y100.658 E7.96007
G1 X165.805 Y100.507 E7.96628
G1 X167.327 Y100.184 E7.98579
G1 X169.142 Y99.952 E8.00874
G1 X170.87 Y99.805 E8.03049
G1 X172.284 Y99.79 E8.04822
G1 X172.772 Y99.83 E8.05436
G1 X173.753 Y99.873 E8.06667
G1 X176.58 Y100.225 E8.1024
G1 X178.044 Y100.565 E8.12125
G1 X178.315 Y100.654 E8.12482
G1 X180 Y101.14 E8.14681
G1 X181.352 Y101.668 E8.16502
G1 X181.76 Y101.807 E8.17042
G1 X183.19 Y102.475 E8.19021
G1 X185.394 Y103.78 E8.22233
G1 X186.232 Y104.377 E8.23524
G1 X186.768 Y104.739 E8.24335
G1 X187.706 Y105.519 E8.25865
G1 X187.991 Y105.808 E8.26374
G1 X189.408 Y107.177 E8.28845
G1 X190.232 Y108.161 E8.30454
G1 X190.651 Y108.631 E8.31244
G1 X191.501 Y109.863 E8.33121
G1 X191.694 Y110.229 E8.3364
G1 X192.505 Y111.647 E8.35688
G1 X193.514 Y113.88 E8.38761
G1 X193.836 Y114.929 E8.40137
G1 X193.941 Y115.485 E8.40847
G1 X194.33 Y117.345 E8.4323
G1 X194.549 Y119.516 E8.45966
G1 X194.525 Y120.846 E8.47634
G1 X194.466 Y121.309 E8.48219
G1 X194.292 Y122.897 E8.50223
G1 X193.804 Y125.189 E8.53161
G1 X193.455 Y126.258 E8.54572
G1 X192.412 Y128.546 E8.57725
G1 X191.365 Y130.377 E8.6037
G1 X190.555 Y131.481 E8.62087
G0 F9000 X190.232 Y131.244
G1 F3600 X189.902 Y131.597 E8.62693
G1 X188.682 Y133.003 E8.65027
G1 X187.817 Y133.811 E8.66512
G1 X187.359 Y134.272 E8.67327
G1 X186.445 Y135.01 E8.688
G1 X185.997 Y135.292 E8.69464
G1 X184.305 Y136.437 E8.72026
G1 X183.272 Y136.997 E8.73499
G1 X182.85 Y137.25 E8.74116
G1 X181.74 Y137.768 E8.75652
G1 X181.257 Y137.932 E8.76292
G1 X179.355 Y138.649 E8.78841
G1 X178.223 Y138.959 E8.80313
G1 X177.62 Y139.149 E8.81106
G1 X176.321 Y139.413 E8.82768
G1 X174.474 Y139.65 E8.85103
G1 X172.574 Y139.8 E8.87493
G1 X170.995 Y139.784 E8.89473
G1 X170.753 Y139.754 E8.89779
G1 X169.488 Y139.686 E8.91368
G1 X167.232 Y139.387 E8.94222
G1 X165.731 Y139.045 E8.96152
G1 X165.449 Y138.948 E8.96526
G1 X163.538 Y138.383 E8.99025
G1 X162.414 Y137.935 E9.00543
G1 X161.904 Y137.751 E9.01223
G1 X160.737 Y137.192 E9.02845
G1 X160.386 Y136.975 E9.03363
G1 X158.732 Y136.035 E9.05749
G1 X157.813 Y135.383 E9.07162
G1 X156.71 Y136.588 E9.0921
G1 X155.258 Y137.538 E9.11386
G1 X153.619 Y137.857 E9.1348
G1 X151.389 Y137.733 E9.16281
G1 X150.234 Y137.318 E9.1782
G1 X148.677 Y135.876 E9.20481
G1 X142.982 Y127.22 E9.33475
G1 X137.248 Y126.399 E9.40739
G1 X135.704 Y125.738 E9.42845
G1 X135.279 Y125.433 E9.43501
G1 X133.669 Y123.44 E9.46714
G1 X133.231 Y121.569 E9.49124
G1 X133.228 Y118.191 E9.5336
G1 X133.692 Y116.468 E9.55598
G1 X133.839 Y116.174 E9.5601
G1 X135.642 Y114.229 E9.59336
G1 X137.445 Y113.52 E9.61765
G1 X142.981 Y112.727 E9.68778
G1 X148.836 Y103.825 E9.8214
G1 X150.241 Y102.655 E9.84433
G1 X152.444 Y102.024 E9.87307
G1 X154.952 Y102.281 E9.90468
G1 X156.784 Y103.438 E9.93185
G1 X157.846 Y104.6 E9.95159
G1 X159.364 Y103.568 E9.97461
G1 X160.396 Y103.009 E9.98933
G1 X160.974 Y102.664 E9.99777
G1 X161.948 Y102.223 E10.01118
G1 X162.449 Y102.057 E10.0178
G1 X164.344 Y101.345 E10.04319
G1 X165.439 Y101.044 E10.05743
G1 X165.927 Y100.888 E10.06385
G1 X167.378 Y100.581 E10.08245
G1 X169.176 Y100.351 E10.10518
G1 X170.904 Y100.204 E10.12693
G1 X172.251 Y100.189 E10.14382
G1 X172.747 Y100.23 E10.15006
G1 X173.736 Y100.273 E10.16248
G1 X176.49 Y100.615 E10.19728
G1 X177.919 Y100.945 E10.21567
G1 X178.189 Y101.034 E10.21924
G1 X179.855 Y101.513 E10.24098
G1 X181.218 Y102.045 E10.25932
G1 X181.631 Y102.186 E10.2648
G1 X182.986 Y102.819 E10.28355
G1 X185.19 Y104.124 E10.31567
G1 X186.009 Y104.709 E10.32829
G1 X186.512 Y105.047 E10.33589
G1 X187.45 Y105.827 E10.35119
G1 X187.713 Y106.096 E10.35591
G1 X189.101 Y107.434 E10.38009
G1 X189.933 Y108.427 E10.39633
G1 X190.352 Y108.897 E10.40423
G1 X191.147 Y110.05 E10.42179
G1 X191.34 Y110.416 E10.42698
G1 X192.158 Y111.846 E10.44764
G1 X193.132 Y113.998 E10.47726
G1 X193.443 Y115.004 E10.49047
G1 X193.549 Y115.56 E10.49756
G1 X193.932 Y117.386 E10.52096
G1 X194.149 Y119.509 E10.54772
G1 X194.128 Y120.795 E10.56385
G1 X194.069 Y121.258 E10.56971
G1 X193.894 Y122.853 E10.58983
G1 X193.413 Y125.105 E10.6187
G1 X193.092 Y126.089 E10.63168
G1 X192.785 Y126.749 E10.64081
G1 X192.065 Y128.346 E10.66278
G1 X191.354 Y129.579 E10.68063
G1 X191.042 Y130.14 E10.68868
G1 X190.232 Y131.244 E10.70585
G0 F9000 X189.909 Y131.007
G1 F3600 X189.611 Y131.322 E10.71129
G1 X188.409 Y132.711 E10.73432
G1 X187.544 Y133.519 E10.74917
G1 X187.107 Y133.961 E10.75696
G1 X186.232 Y134.671 E10.77109
G1 X185.784 Y134.953 E10.77773
G1 X184.114 Y136.085 E10.80303
