;START_OF_HEADER
;HEADER_VERSION:0.1
;FLAVOR:Griffin
;GENERATOR.NAME:Cura_SteamEngine
;GENERATOR.VERSION:5.4.0
;GENERATOR.BUILD_DATE:2023-07-04
;TARGET_MACHINE.NAME:Ultimaker S5
;EXTRUDER_TRAIN.0.INITIAL_TEMPERATURE:210
;EXTRUDER_TRAIN.0.MATERIAL.VOLUME_USED:2677
;EXTRUDER_TRAIN.0.MATERIAL.GUID:3ee70a86-77d8-4b87-8005-e4a1bc57d2ce
;EXTRUDER_TRAIN.0.NOZZLE.DIAMETER:0.4
;EXTRUDER_TRAIN.0.NOZZLE.NAME:AA 0.4
;BUILD_PLATE.INITIAL_TEMPERATURE:60
;BUILD_VOLUME.TEMPERATURE:28
;PRINT.TIME:1345
;PRINT.GROUPS:1
;PRINT.SIZE.MIN.X:138.974
;PRINT.SIZE.MIN.Y:102.95
;PRINT.SIZE.MIN.Z:0.2
;PRINT.SIZE.MAX.X:191.396
;PRINT.SIZE.MAX.Y:137.092
;PRINT.SIZE.MAX.Z:20
;SLICE_UUID:d539864a-fc19-4c2a-b89f-eb9e2c94b068
;END_OF_HEADER
;Generated with Cura_SteamEngine 5.4.0
T0
M82 ;absolute extrusion mode

G92 E0
M109 S210
G280 S1
G0 Z20.001
G1 F2700 E-6.5
;LAYER_COUNT:133
;LAYER:0
M106 S255
M204 S1000
M205 X20 Y20
;MESH:Olympic_Stadium_Montreal (1).STL
G0 F9000 X171.59 Y134.082 Z0.2
;TYPE:WALL-OUTER
G1 F2700 E0
G1 F3600 X173.2 Y133.992 E0.02224
G1 X174 Y133.919 E0.03333
G1 X175.522 Y133.72 E0.0545
G1 X176.358 Y133.544 E0.06628
G1 X176.451 Y133.483 E0.06782
G1 X177.706 Y133.146 E0.08574
G1 X179.081 Y132.614 E0.10608
G1 X179.63 Y132.44 E0.11403
G1 X181.433 Y131.465 E0.1423
G1 X182.62 Y130.642 E0.16222
G1 X183.102 Y130.356 E0.16996
G1 X184.596 Y128.976 E0.19801
G1 X186.265 Y126.997 E0.23372
G1 X186.296 Y126.838 E0.23596
G1 X187.057 Y125.519 E0.25696
G1 X187.474 Y124.561 E0.27138
G1 X187.751 Y124.031 E0.27963
G1 X188.242 Y121.842 E0.31057
G1 X188.34 Y120.828 E0.32462
G1 X188.431 Y120.241 E0.33282
G1 X188.324 Y119.012 E0.34984
G1 X188.216 Y117.999 E0.36389
G1 X187.714 Y115.838 E0.39449
G1 X187.597 Y115.714 E0.39684
G1 X186.978 Y114.326 E0.41781
G1 X185.836 Y112.402 E0.44867
G1 X185.692 Y112.314 E0.451
G1 X184.911 Y111.358 E0.46803
G1 X183.89 Y110.391 E0.48743
G1 X183.492 Y109.964 E0.49548
G1 X181.916 Y108.843 E0.52216
G1 X180.077 Y107.768 E0.55154
G1 X178.154 Y107.003 E0.58009
G1 X175.587 Y106.266 E0.61693
G1 X175.425 Y106.294 E0.6192
G1 X174.542 Y106.148 E0.63154
G1 X173.479 Y106.018 E0.64632
G1 X172.659 Y105.981 E0.65764
G1 X172.072 Y105.917 E0.66579
G1 X170.061 Y106.032 E0.69357
G1 X167.915 Y106.308 E0.72342
G1 X166.817 Y106.627 E0.73919
G1 X165.952 Y106.861 E0.75155
G1 X163.47 Y107.815 E0.78823
G1 X163.352 Y107.947 E0.79067
G1 X162.223 Y108.55 E0.80833
G1 X160.07 Y110.047 E0.8445
G1 X159.988 Y110.198 E0.84687
G1 X159.401 Y110.736 E0.85786
G1 X158.368 Y111.844 E0.87875
G1 X157.707 Y112.616 E0.89277
G1 X157.554 Y112.646 E0.89492
G1 X157.359 Y112.571 E0.89781
G1 X153.055 Y107.867 E0.98576
G1 X146.355 Y118.051 E1.15392
G1 X138.974 Y119.108 E1.25677
G1 X138.976 Y120.839 E1.28065
G1 X146.355 Y121.894 E1.38347
G1 X153.056 Y132.076 E1.55162
G1 X157.382 Y127.351 E1.63999
G1 X157.545 Y127.307 E1.64231
G1 X157.975 Y127.665 E1.65003
G1 X158.765 Y128.636 E1.6673
G1 X159.778 Y129.596 E1.68655
G1 X160.174 Y130.021 E1.69457
G1 X161.828 Y131.201 E1.72259
G1 X163.099 Y131.91 E1.74267
G1 X163.592 Y132.224 E1.75073
G1 X165.517 Y132.992 E1.77932
G1 X166.927 Y133.396 E1.79955
G1 X167.478 Y133.589 E1.80761
G1 X169.123 Y133.849 E1.83058
G1 X170.2 Y133.98 E1.84555
G1 X171.007 Y134.016 E1.85669
G1 X171.59 Y134.082 E1.86478
G0 F9000 X171.789 Y134.071
G0 X171.602 Y133.681
;TYPE:WALL-INNER
G1 F3600 X173.579 Y133.57 E1.88837
G1 X175.455 Y133.326 E1.91091
G1 X176.325 Y133.103 E1.92161
G1 X177.582 Y132.765 E1.93712
G1 X178.96 Y132.233 E1.95472
G1 X179.473 Y132.07 E1.96113
G1 X181.223 Y131.123 E1.98483
G1 X182.416 Y130.298 E2.00211
G1 X182.862 Y130.034 E2.00829
G1 X184.306 Y128.699 E2.03172
G1 X185.896 Y126.814 E2.06109
G1 X185.95 Y126.638 E2.06329
G1 X186.699 Y125.339 E2.08115
G1 X187.101 Y124.414 E2.09317
G1 X187.372 Y123.892 E2.10017
G1 X187.846 Y121.779 E2.12597
G1 X187.94 Y120.801 E2.13768
G1 X188.028 Y120.227 E2.1446
G1 X187.944 Y119.233 E2.15648
G1 X187.821 Y118.065 E2.17047
G1 X187.348 Y116.031 E2.19535
G1 X187.232 Y115.877 E2.19765
G1 X186.622 Y114.51 E2.21548
G1 X185.541 Y112.689 E2.24071
G1 X185.382 Y112.567 E2.2431
G1 X184.617 Y111.631 E2.2575
G1 X183.598 Y110.664 E2.27423
G1 X183.227 Y110.266 E2.28072
G1 X181.699 Y109.179 E2.30306
G1 X179.901 Y108.128 E2.32787
G1 X178.024 Y107.382 E2.35193
G1 X175.561 Y106.676 E2.38245
G1 X175.359 Y106.688 E2.38486
G1 X174.485 Y106.544 E2.39542
G1 X173.446 Y106.417 E2.40789
G1 X172.615 Y106.379 E2.4178
G1 X172.062 Y106.318 E2.42443
G1 X170.101 Y106.431 E2.44783
G1 X167.997 Y106.701 E2.4731
G1 X166.921 Y107.013 E2.48644
G1 X166.076 Y107.242 E2.49687
G1 X163.704 Y108.154 E2.52715
G1 X163.54 Y108.3 E2.52977
G1 X162.432 Y108.892 E2.54473
G1 X160.378 Y110.319 E2.57453
G1 X159.683 Y111.02 E2.58629
G1 X158.666 Y112.11 E2.60405
G1 X157.951 Y112.945 E2.61714
G1 X157.683 Y113.041 E2.62054
G1 X157.427 Y113.027 E2.62359
G1 X157.098 Y112.869 E2.62794
G1 X153.106 Y108.516 E2.6983
G1 X146.697 Y118.253 E2.83718
G1 X146.457 Y118.44 E2.8408
G1 X139.375 Y119.455 E2.92603
G1 X139.376 Y120.492 E2.93839
G1 X146.457 Y121.505 E3.0236
G1 X146.697 Y121.692 E3.02723
G1 X153.107 Y131.427 E3.16609
G1 X157.126 Y127.044 E3.23693
G1 X157.356 Y126.925 E3.24002
G1 X157.779 Y126.967 E3.24508
G1 X158.255 Y127.379 E3.25258
G1 X159.059 Y128.364 E3.26773
G1 X160.07 Y129.323 E3.28433
G1 X160.439 Y129.719 E3.29078
G1 X162.042 Y130.863 E3.31424
G1 X163.314 Y131.572 E3.33159
G1 X163.775 Y131.866 E3.3381
G1 X165.647 Y132.613 E3.36212
G1 X167.059 Y133.018 E3.37962
G1 X167.576 Y133.199 E3.38614
G1 X169.179 Y133.453 E3.40548
G1 X170.233 Y133.581 E3.41813
G1 X171.052 Y133.618 E3.42789
G1 X171.602 Y133.681 E3.43449
G0 F9000 X171.609 Y133.359
;TYPE:SKIN
G1 F3600 X173.534 Y133.252 E3.45516
G1 X175.403 Y133.009 E3.47537
G1 X176.23 Y132.798 E3.48452
G1 X177.476 Y132.462 E3.49836
G1 X178.882 Y131.921 E3.51451
G1 X179.346 Y131.773 E3.51973
G1 X181.054 Y130.851 E3.54054
G1 X182.256 Y130.02 E3.55621
G1 X182.669 Y129.775 E3.56136
G1 X184.077 Y128.473 E3.58192
G1 X185.616 Y126.649 E3.60751
G1 X185.675 Y126.47 E3.60953
G1 X186.415 Y125.19 E3.62538
G1 X186.844 Y124.204 E3.63691
G1 X187.068 Y123.78 E3.64205
G1 X187.53 Y121.722 E3.66467
G1 X187.629 Y120.709 E3.67558
G1 X187.707 Y120.218 E3.68091
G1 X187.608 Y119.09 E3.69305
G1 X187.503 Y118.115 E3.70357
G1 X187.047 Y116.157 E3.72512
G1 X186.936 Y116 E3.72718
G1 X186.339 Y114.663 E3.74288
G1 X185.288 Y112.893 E3.76495
G1 X185.128 Y112.762 E3.76717
G1 X184.386 Y111.854 E3.77974
G1 X183.361 Y110.881 E3.7949
G1 X183.015 Y110.51 E3.80034
G1 X181.521 Y109.447 E3.82
G1 X179.76 Y108.419 E3.84186
G1 X177.916 Y107.685 E3.86314
G1 X175.513 Y106.993 E3.88995
G1 X175.299 Y107.002 E3.89225
G1 X174.389 Y106.853 E3.90214
G1 X173.416 Y106.736 E3.91264
G1 X172.578 Y106.697 E3.92164
G1 X172.051 Y106.64 E3.92732
G1 X170.15 Y106.748 E3.94774
G1 X168.057 Y107.017 E3.97036
G1 X166.947 Y107.34 E3.98276
G1 X166.179 Y107.545 E3.99128
G1 X163.861 Y108.438 E4.01791
G1 X163.684 Y108.587 E4.0204
G1 X162.601 Y109.165 E4.03356
G1 X160.588 Y110.564 E4.05984
G1 X159.91 Y111.248 E4.07017
G1 X158.904 Y112.326 E4.08598
G1 X158.14 Y113.203 E4.09845
G1 X157.72 Y113.357 E4.10324
G1 X157.342 Y113.333 E4.10731
G1 X156.913 Y113.153 E4.11229
G1 X153.148 Y109.035 E4.17212
G1 X146.94 Y118.461 E4.29314
G1 X146.565 Y118.749 E4.29821
G1 X139.696 Y119.733 E4.37261
G1 X139.696 Y120.213 E4.37775
G1 X146.565 Y121.196 E4.45215
G1 X146.935 Y121.475 E4.45712
G1 X153.149 Y130.908 E4.57824
G1 X156.826 Y126.888 E4.63665
G1 X157.206 Y126.638 E4.64153
G1 X157.654 Y126.598 E4.64635
G1 X158.031 Y126.747 E4.6507
G1 X158.502 Y127.173 E4.6575
G1 X159.29 Y128.139 E4.67087
G1 X160.303 Y129.102 E4.68586
G1 X160.652 Y129.476 E4.69134
G1 X162.218 Y130.593 E4.71197
G1 X163.492 Y131.305 E4.72761
G1 X163.919 Y131.578 E4.73305
G1 X165.756 Y132.31 E4.75425
G1 X167.174 Y132.718 E4.77007
G1 X167.655 Y132.89 E4.77555
G1 X169.273 Y133.144 E4.79311
G1 X170.263 Y133.262 E4.8038
G1 X171.609 Y133.359 E4.81827
G1 F2700 E-1.68173
G0 F9000 X171.587 Y133.658
G0 X173.56 Y133.491
G0 X175.443 Y133.246
G0 X177.557 Y132.689
G0 X179.44 Y131.995
G0 X181.18 Y131.055
G0 X182.813 Y129.968
G0 X184.247 Y128.643
G0 X185.832 Y126.764
G0 X186.627 Y125.303
G0 X187.296 Y123.864
G0 X187.766 Y121.766
G0 X187.947 Y120.224
G0 X187.741 Y118.08
G0 X187.27 Y116.055
G0 X185.955 Y113.425
G0 X185.523 Y113.681
G1 F2700 E4.81827
G1 F3600 X181.568 Y109.726 E4.87824
G0 F9000 X181.858 Y109.319
G0 X180.414 Y108.453
G0 X180.161 Y108.885
G1 F3600 X186.263 Y114.987 E4.97077
G0 F9000 X186.722 Y114.784
G0 X187.178 Y115.805
G0 X186.719 Y116.008
G1 F3600 X179.07 Y108.359 E5.08675
G0 F9000 X179.255 Y107.895
G0 X178.315 Y107.521
G0 X178.13 Y107.985
G1 F3600 X187.004 Y116.86 E5.22131
G0 F9000 X187.176 Y117.596
G1 F3600 X177.293 Y107.714 E5.37117
G0 F9000 X176.499 Y107.485
G1 F3600 X187.321 Y118.308 E5.53527
G0 F9000 X187.39 Y118.942
G1 F3600 X175.705 Y107.257 E5.71245
G0 F9000 X175.044 Y107.162
G1 F3600 X187.448 Y119.566 E5.90054
G0 F9000 X187.502 Y120.186
G1 F3600 X174.368 Y107.052 E6.09969
G0 F9000 X173.725 Y106.974
G1 F3600 X187.429 Y120.679 E6.30749
G0 F9000 X187.379 Y121.194
G1 F3600 X173.107 Y106.922 E6.5239
G0 F9000 X172.51 Y106.891
G1 F3600 X187.327 Y121.707 E6.74857
G0 F9000 X187.224 Y122.17
G1 F3600 X171.903 Y106.849 E6.98089
G0 F9000 X171.368 Y106.879
G1 F3600 X187.12 Y122.632 E7.21974
G0 F9000 X187.017 Y123.094
G1 F3600 X170.832 Y106.909 E7.46516
G0 F9000 X170.296 Y106.94
G1 F3600 X186.913 Y123.556 E7.71712
G0 F9000 X186.748 Y123.957
G1 F3600 X169.787 Y106.996 E7.9743
G0 F9000 X169.286 Y107.06
G1 F3600 X186.566 Y124.341 E8.23633
G0 F9000 X186.394 Y124.735
G1 F3600 X168.784 Y107.125 E8.50336
G0 F9000 X168.283 Y107.189
G1 F3600 X186.22 Y125.126 E8.77534
G0 F9000 X186.012 Y125.484
G1 F3600 X167.821 Y107.293 E9.05117
G0 F9000 X167.384 Y107.421
G1 F3600 X185.805 Y125.843 E9.3305
G0 F9000 X185.598 Y126.201
G1 F3600 X166.945 Y107.548 E9.61334
G0 F9000 X166.498 Y107.666
G1 F3600 X185.411 Y126.58 E9.90013
G0 F9000 X185.153 Y126.887
G1 F3600 X166.067 Y107.801 E10.18954
G0 F9000 X165.659 Y107.959
G1 F3600 X184.894 Y127.194 E10.4812
G0 F9000 X184.635 Y127.501
G1 F3600 X165.25 Y108.116 E10.77514
G0 F9000 X164.842 Y108.274
G1 F3600 X184.376 Y127.808 E11.07134
G0 F9000 X184.117 Y128.115
G1 F3600 X164.434 Y108.431 E11.3698
G0 F9000 X164.026 Y108.588
G1 F3600 X183.848 Y128.411 E11.67038
G0 F9000 X183.554 Y128.682
G1 F3600 X163.684 Y108.813 E11.97166
G0 F9000 X163.315 Y109.009
G1 F3600 X183.26 Y128.955 E12.2741
G0 F9000 X182.966 Y129.226
G1 F3600 X162.947 Y109.206 E12.57766
G0 F9000 X162.59 Y109.416
G1 F3600 X182.672 Y129.498 E12.88217
G0 F9000 X182.343 Y129.735
G1 F3600 X162.256 Y109.648 E13.18675
G0 F9000 X161.923 Y109.88
G1 F3600 X181.997 Y129.954 E13.49114
G0 F9000 X181.662 Y130.185
G1 F3600 X161.589 Y110.112 E13.79551
G0 F9000 X161.255 Y110.344
G1 F3600 X181.328 Y130.416 E14.09987
G0 F9000 X180.993 Y130.647
G1 F3600 X160.921 Y110.575 E14.40423
G0 F9000 X160.607 Y110.826
G1 F3600 X180.63 Y130.85 E14.70785
G0 F9000 X180.263 Y131.048
G1 F3600 X160.325 Y111.111 E15.01017
G0 F9000 X160.044 Y111.395
G1 F3600 X179.895 Y131.246 E15.31117
G0 F9000 X179.528 Y131.445
G1 F3600 X159.771 Y111.688 E15.61075
G0 F9000 X159.498 Y111.98
G1 F3600 X179.144 Y131.626 E15.90865
G0 F9000 X178.719 Y131.767
G1 F3600 X159.225 Y112.273 E16.20424
G0 F9000 X158.956 Y112.569
G1 F3600 X178.311 Y131.925 E16.49773
G0 F9000 X177.903 Y132.082
G1 F3600 X158.693 Y112.873 E16.78901
G0 F9000 X158.431 Y113.176
G1 F3600 X177.495 Y132.24 E17.07808
G0 F9000 X177.056 Y132.367
G1 F3600 X158.104 Y113.415 E17.36546
G0 F9000 X157.678 Y113.554
G1 F3600 X176.611 Y132.487 E17.65254
G0 F9000 X176.165 Y132.607
G1 F3600 X156.933 Y113.376 E17.94415
G0 F9000 X157.128 Y112.919
G0 X156.273 Y112.007
G0 X155.902 Y112.345
G1 F3600 X153.071 Y109.513 E17.98709
G0 F9000 X152.846 Y109.854
G1 F3600 X175.714 Y132.722 E18.33384
G0 F9000 X175.252 Y132.826
G1 F3600 X152.621 Y110.195 E18.677
G0 F9000 X152.397 Y110.536
G1 F3600 X174.752 Y132.891 E19.01597
G0 F9000 X174.252 Y132.957
G1 F3600 X152.172 Y110.877 E19.35078
G0 F9000 X151.948 Y111.218
G1 F3600 X173.751 Y133.022 E19.68139
G0 F9000 X173.232 Y133.069
G1 F3600 X151.723 Y111.559 E20.00754
G0 F9000 X151.498 Y111.9
G1 F3600 X172.696 Y133.098 E20.32897
G0 F9000 X172.159 Y133.127
G1 F3600 X151.274 Y112.241 E20.64566
G0 F9000 X151.049 Y112.582
G1 F3600 X171.624 Y133.157 E20.95765
G0 F9000 X171.016 Y133.115
G1 F3600 X150.824 Y112.923 E21.26382
G0 F9000 X150.6 Y113.265
G1 F3600 X170.407 Y133.071 E21.56415
G0 F9000 X169.771 Y133.001
G1 F3600 X150.375 Y113.605 E21.85826
G0 F9000 X150.15 Y113.946
G1 F3600 X169.121 Y132.917 E22.14592
G0 F9000 X168.45 Y132.812
G1 F3600 X149.925 Y114.287 E22.42682
G0 F9000 X149.701 Y114.629
G1 F3600 X167.778 Y132.706 E22.70092
G0 F9000 X166.952 Y132.445
G1 F3600 X149.476 Y114.969 E22.96592
G0 F9000 X149.251 Y115.31
G1 F3600 X166.158 Y132.217 E23.22228
G0 F9000 X165.28 Y131.905
G1 F3600 X149.026 Y115.651 E23.46874
G0 F9000 X148.802 Y115.993
G1 F3600 X164.339 Y131.529 E23.70433
G0 F9000 X164.153 Y131.994
G0 X162.857 Y131.294
G0 X163.101 Y130.857
G1 F3600 X148.577 Y116.333 E23.92456
G0 F9000 X148.353 Y116.674
G1 F3600 X161.549 Y129.87 E24.12465
G0 F9000 X161.257 Y130.277
G0 X157.574 Y126.904
G0 X157.529 Y126.417
G1 F3600 X148.128 Y117.015 E24.26721
G0 F9000 X147.904 Y117.357
G1 F3600 X157.042 Y126.495 E24.40577
G0 F9000 X156.709 Y126.728
G1 F3600 X147.679 Y117.697 E24.5427
G0 F9000 X147.454 Y118.038
G1 F3600 X156.434 Y127.019 E24.67888
G0 F9000 X156.163 Y127.313
G1 F3600 X147.229 Y118.379 E24.81434
G0 F9000 X146.969 Y118.685
G1 F3600 X155.893 Y127.609 E24.94966
G0 F9000 X155.623 Y127.905
G1 F3600 X146.648 Y118.93 E25.08575
G0 F9000 X146.161 Y119.008
G1 F3600 X155.353 Y128.2 E25.22513
G0 F9000 X155.083 Y128.496
G1 F3600 X145.667 Y119.08 E25.36791
G0 F9000 X145.172 Y119.151
G1 F3600 X154.813 Y128.791 E25.51409
G0 F9000 X154.543 Y129.087
G1 F3600 X147.629 Y122.173 E25.61893
G0 F9000 X147.216 Y122.445
G0 X146.359 Y121.47
G0 X146.43 Y120.974
G1 F3600 X144.677 Y119.221 E25.64551
G0 F9000 X144.182 Y119.292
G1 F3600 X145.77 Y120.879 E25.66958
G0 F9000 X145.11 Y120.785
G1 F3600 X143.688 Y119.363 E25.69114
G0 F9000 X143.193 Y119.434
G1 F3600 X144.449 Y120.691 E25.71019
G0 F9000 X143.789 Y120.596
G1 F3600 X142.698 Y119.505 E25.72674
G0 F9000 X142.204 Y119.576
G1 F3600 X143.129 Y120.501 E25.74076
G0 F9000 X142.468 Y120.406
G1 F3600 X141.709 Y119.647 E25.75227
G0 F9000 X141.214 Y119.718
G1 F3600 X141.808 Y120.312 E25.76128
G0 F9000 X141.147 Y120.217
G1 F3600 X140.719 Y119.789 E25.76777
G0 F9000 X140.487 Y120.123
G1 F3600 X140.224 Y119.86 E25.77176
G0 F9000 X140.154 Y119.364
G0 X139.466 Y120.413
G0 X146.495 Y121.678
G0 X148.31 Y124.106
G0 X148.724 Y123.834
G1 F3600 X154.273 Y129.382 E25.85589
G0 F9000 X154.002 Y129.678
G1 F3600 X149.818 Y125.494 E25.91933
G0 F9000 X149.403 Y125.767
G0 X150.497 Y127.427
G0 X150.913 Y127.154
G1 F3600 X153.732 Y129.974 E25.96209
G0 F9000 X153.461 Y130.268
G1 F3600 X152.008 Y128.815 E25.98412
G0 F9000 X151.591 Y129.089
G0 X152.685 Y130.749
G0 X153.102 Y130.475
G1 F3600 X153.191 Y130.564 E25.98547
M204 S1500
G1 F2700 E19.48547
;MESH:NONMESH
G0 F600 X153.191 Y130.564 Z0.35
G0 F9000 X153.56 Y130.902
G0 X157.488 Y126.899
G0 X161.954 Y130.999
G0 X165.727 Y132.839
G0 X171.568 Y133.77
G0 X171.516 Y134.445
;TIME_ELAPSED:51.340042
;LAYER:1
;TYPE:WALL-OUTER
;MESH:Olympic_Stadium_Montreal (1).STL
G1 F2700 E25.98547
G1 F3600 X172.242 Y134.444 E25.9923
G1 X172.3 Y134.359 E25.99326
G1 X173.172 Y134.318 E26.00147
G1 X174.437 Y134.202 E26.01342
G1 X175.65 Y133.995 E26.02499
G1 X175.725 Y134.066 E26.02597
G1 X176.426 Y133.918 E26.0327
G1 X176.467 Y133.817 E26.03373
G1 X177.429 Y133.554 E26.04311
G1 X178.514 Y133.205 E26.05383
G1 X179.632 Y132.745 E26.0652
G1 X179.722 Y132.796 E26.06617
G1 X180.121 Y132.608 E26.07032
G1 X181.837 Y131.575 E26.08916
G1 X182.842 Y130.909 E26.1005
G1 X183.845 Y130.208 E26.11201
G1 X183.838 Y130.119 E26.11285
G1 X184.46 Y129.54 E26.12084
G1 X185.091 Y128.897 E26.12931
G1 X186.048 Y127.757 E26.14331
G1 X186.15 Y127.758 E26.14427
G1 X186.57 Y127.174 E26.15104
G1 X186.532 Y127.071 E26.15207
G1 X187.027 Y126.264 E26.16097
